src/assets/skills/coda.svg

<svg fill="none" height="100" viewBox="0 0 100 100" width="100" xmlns="http://www.w3.org/2000/svg"><rect fill="#ee5a29" height="100" rx="50" width="100"/><path d="m64.625 63.8511c-3.5362-.0752-6.9022-1.5327-9.3765-4.0602-2.4743-2.5274-3.8599-5.9237-3.8599-9.4606 0-3.537 1.3856-6.9332 3.8599-9.4607 2.4743-2.5274 5.8403-3.985 9.3765-4.0602 3.1627.0004 6.2187 1.1442 8.6044 3.2206.3344.2824.7426.4632 1.1765.521.4338.0578.8751-.0099 1.2717-.195s.7319-.48.9663-.8496c.2343-.3697.3579-.7987.3561-1.2364v-12.6867c0-1.2155-.4829-2.3813-1.3424-3.2409-.8596-.8595-2.0254-1.3424-3.2409-1.3424h-45.8334c-1.2155 0-2.3813.4829-3.2409 1.3424-.8595.8596-1.3424 2.0254-1.3424 3.2409v49.5c0 1.2156.4829 2.3814 1.3424 3.2409.8596.8596 2.0254 1.3424 3.2409 1.3424h45.8334c1.2155 0 2.3813-.4828 3.2409-1.3424.8595-.8595 1.3424-2.0253 1.3424-3.2409v-12.6867c.0018-.4376-.1218-.8667-.3561-1.2363-.2344-.3697-.5697-.6645-.9663-.8496-.3966-.1852-.8379-.2528-1.2717-.1951-.4339.0578-.8421.2386-1.1765.5211-2.3866 2.0741-5.4424 3.2158-8.6044 3.2144z" fill="#fff"/></svg>

<svg width="100" height="100" viewBox="0 0 100 100" fill="none" xmlns="http://www.w3.org/2000/svg">
<rect width="100" height="100" rx="50" fill="#EE5A29"/>
<path d="M64.625 63.8511C61.0888 63.7759 57.7228 62.3184 55.2485 59.7909C52.7742 57.2635 51.3886 53.8672 51.3886 50.3303C51.3886 46.7933 52.7742 43.3971 55.2485 40.8696C57.7228 38.3422 61.0888 36.8846 64.625 36.8094C67.7877 36.8098 70.8437 37.9536 73.2294 40.03C73.5638 40.3124 73.972 40.4932 74.4059 40.551C74.8397 40.6088 75.281 40.5411 75.6776 40.356C76.0742 40.1709 76.4095 39.876 76.6439 39.5064C76.8782 39.1367 77.0018 38.7077 77 38.27V25.5833C77 24.3678 76.5171 23.202 75.6576 22.3424C74.798 21.4829 73.6322 21 72.4167 21H26.5833C25.3678 21 24.202 21.4829 23.3424 22.3424C22.4829 23.202 22 24.3678 22 25.5833V75.0833C22 76.2989 22.4829 77.4647 23.3424 78.3242C24.202 79.1838 25.3678 79.6666 26.5833 79.6666H72.4167C73.6322 79.6666 74.798 79.1838 75.6576 78.3242C76.5171 77.4647 77 76.2989 77 75.0833V62.3966C77.0018 61.959 76.8782 61.5299 76.6439 61.1603C76.4095 60.7906 76.0742 60.4958 75.6776 60.3107C75.281 60.1255 74.8397 60.0579 74.4059 60.1156C73.972 60.1734 73.5638 60.3542 73.2294 60.6367C70.8428 62.7108 67.787 63.8525 64.625 63.8511Z" fill="white"/>
</svg>
